docs/img/icons/social-1.svg

<svg width="32" height="32" viewBox="0 0 32 32" fill="none" xmlns="http://www.w3.org/2000/svg">
<path d="M16 0C7.16479 0 0 7.16479 0 16C0 24.8352 7.16479 32 16 32C24.8352 32 32 24.8352 32 16C32 7.16479 24.8352 0 16 0ZM16.3391 25.3157C16.3389 25.3157 16.3394 25.3157 16.3391 25.3157H16.3352C14.7324 25.3149 13.1575 24.9131 11.7588 24.1504L6.68237 25.4817L8.04102 20.5208C7.20288 19.0691 6.76196 17.4221 6.7627 15.7349C6.76489 10.4565 11.0608 6.16235 16.3391 6.16235C18.9006 6.16333 21.3052 7.1604 23.113 8.96973C24.9211 10.7793 25.9163 13.1846 25.9153 15.7424C25.9131 21.021 21.6167 25.3157 16.3391 25.3157Z" fill="#237D26"/>
<path d="M16.3418 7.7793C11.9514 7.7793 8.38086 11.3484 8.37891 15.7356C8.37842 17.239 8.79932 18.7031 9.59595 19.97L9.78516 20.271L8.98096 23.2073L11.9934 22.4172L12.2842 22.5896C13.5061 23.3147 14.907 23.6982 16.3352 23.6987H16.3384C20.7253 23.6987 24.2959 20.1294 24.2979 15.7419C24.2986 13.6157 23.4714 11.6167 21.9688 10.1128C20.4661 8.60889 18.4675 7.78003 16.3418 7.7793ZM21.0234 19.1565C20.824 19.7151 19.8682 20.2251 19.4085 20.2939C18.9961 20.3555 18.4746 20.3811 17.9014 20.1992C17.5537 20.0889 17.1082 19.9417 16.5371 19.6953C14.137 18.6592 12.5693 16.2432 12.4497 16.0835C12.3301 15.9238 11.4727 14.7864 11.4727 13.6089C11.4727 12.4316 12.0908 11.8528 12.3101 11.6135C12.5295 11.374 12.7888 11.3142 12.9482 11.3142C13.1077 11.3142 13.2673 11.3157 13.4067 11.3225C13.5537 11.3298 13.751 11.2666 13.9451 11.7332C14.1445 12.2122 14.623 13.3894 14.6829 13.509C14.7427 13.6289 14.7825 13.7686 14.7029 13.9282C14.623 14.0879 14.3579 14.4324 14.1047 14.7463C13.9985 14.8779 13.8601 14.9951 13.9998 15.2346C14.1392 15.4739 14.6196 16.2573 15.3308 16.8916C16.2449 17.7065 17.0159 17.959 17.2551 18.0789C17.4941 18.1985 17.6338 18.1785 17.7734 18.019C17.9128 17.8594 18.3716 17.3206 18.531 17.0811C18.6904 16.8416 18.8501 16.8816 19.0693 16.9614C19.2888 17.041 20.4651 17.6199 20.7043 17.7395C20.9436 17.8594 21.103 17.9192 21.1628 18.019C21.2229 18.1189 21.2229 18.5977 21.0234 19.1565Z" fill="#237D26"/>
</svg>

<svg width="32" height="32" fill="none" xmlns="http://www.w3.org/2000/svg"><path d="M16 0C7.165 0 0 7.165 0 16s7.165 16 16 16 16-7.165 16-16S24.835 0 16 0zm.34 25.316c-.001 0 0 0 0 0h-.005a9.573 9.573 0 01-4.576-1.166l-5.077 1.332 1.359-4.961a9.552 9.552 0 01-1.278-4.786c.002-5.278 4.298-9.573 9.576-9.573a9.515 9.515 0 016.774 2.808 9.514 9.514 0 012.802 6.772c-.002 5.279-4.298 9.574-9.576 9.574z" fill="#237D26"/><path d="M16.342 7.78c-4.39 0-7.961 3.568-7.963 7.956a7.94 7.94 0 001.217 4.234l.19.301-.805 2.936 3.012-.79.291.173a7.947 7.947 0 004.051 1.109h.003c4.387 0 7.958-3.57 7.96-7.957a7.908 7.908 0 00-2.33-5.63 7.907 7.907 0 00-5.626-2.333zm4.681 11.377c-.199.558-1.155 1.068-1.614 1.137a3.283 3.283 0 01-1.508-.095 13.79 13.79 0 01-1.364-.504c-2.4-1.036-3.968-3.452-4.087-3.611-.12-.16-.977-1.298-.977-2.475s.618-1.756.837-1.995a.88.88 0 01.638-.3c.16 0 .32.002.459.008.147.008.344-.055.538.411.2.48.678 1.656.738 1.776.06.12.1.26.02.42-.08.159-.345.503-.598.817-.107.132-.245.25-.105.489s.62 1.022 1.33 1.657c.915.814 1.686 1.067 1.925 1.187.24.12.379.1.518-.06.14-.16.599-.698.758-.938.16-.24.32-.2.538-.12.22.08 1.396.659 1.635.779.24.12.399.18.459.279.06.1.06.579-.14 1.138z" fill="#237D26"/></svg>
